IMG/free-icon-facebook-1384053 1.svg

<svg width="25" height="25" viewBox="0 0 25 25" fill="none" xmlns="http://www.w3.org/2000/svg">
<g clip-path="url(#clip0_1_324)">
<path d="M23.62 4.41806e-08H1.37882C0.617218 0.000381514 -0.000190691 0.618172 4.41806e-08 1.37997V23.6212C0.000381514 24.3828 0.618172 25.0002 1.37997 25H23.62C24.382 25.0002 24.9998 24.3826 25 23.6206C25 23.6204 25 23.6202 25 23.62V1.37882C24.9996 0.617218 24.3818 -0.000190691 23.62 4.41806e-08Z" fill="#4267B2"/>
<path d="M17.2607 25V15.3321H20.52L21.0083 11.5479H17.2607V9.13776C17.2607 8.04466 17.5642 7.29984 19.1317 7.29984H21.1182V3.92441C20.7726 3.87844 19.5868 3.77563 18.207 3.77563C15.3261 3.77563 13.3545 5.53345 13.3545 8.76297V11.5479H10.1074V15.3321H13.3545V25H17.2607Z" fill="white"/>
</g>
<defs>
<clipPath id="clip0_1_324">
<rect width="25" height="25" fill="white"/>
</clipPath>
</defs>
</svg>

<svg xmlns="http://www.w3.org/2000/svg" width="25" height="25" fill="none"><g clip-path="url(#a)"><path fill="#4267B2" d="M23.62 0H1.379A1.38 1.38 0 0 0 0 1.38v22.241A1.38 1.38 0 0 0 1.38 25h22.24A1.38 1.38 0 0 0 25 23.62V1.379A1.38 1.38 0 0 0 23.62 0Z"/><path fill="#fff" d="M17.26 25v-9.668h3.26l.488-3.784h-3.747v-2.41c0-1.093.303-1.838 1.87-1.838h1.987V3.924c-.345-.046-1.531-.148-2.911-.148-2.88 0-4.853 1.757-4.853 4.987v2.785h-3.247v3.784h3.248V25h3.906Z"/></g><defs><clipPath id="a"><path fill="#fff" d="M0 0h25v25H0z"/></clipPath></defs></svg>
